fs/people_team_24_filled.svg

<svg viewBox="0 0 24 24" fill="none" xmlns="http://www.w3.org/2000/svg" height="1em" width="1em">
  <path d="M14.754 10C15.7205 10 16.504 10.7835 16.504 11.75V16.499C16.504 18.9848 14.4888 21 12.003 21C9.51712 21 7.50193 18.9848 7.50193 16.499V11.75C7.50193 10.7835 8.28543 10 9.25193 10H14.754ZM7.13128 9.99906C6.78183 10.4218 6.55636 10.9508 6.51057 11.5304L6.50193 11.75V16.499C6.50193 17.3456 6.69319 18.1476 7.03487 18.864C6.70577 18.953 6.35899 19 6.00124 19C3.79142 19 2 17.2086 2 14.9988V11.75C2 10.8318 2.70711 10.0788 3.60647 10.0058L3.75 10L7.13128 9.99906ZM16.8747 9.99906L20.25 10C21.2165 10 22 10.7835 22 11.75V15C22 17.2091 20.2091 19 18 19C17.6436 19 17.298 18.9534 16.9691 18.8659C17.2697 18.238 17.4538 17.5452 17.4951 16.8144L17.504 16.499V11.75C17.504 11.0847 17.2678 10.4747 16.8747 9.99906ZM12 3C13.6569 3 15 4.34315 15 6C15 7.65685 13.6569 9 12 9C10.3431 9 9 7.65685 9 6C9 4.34315 10.3431 3 12 3ZM18.5 4C19.8807 4 21 5.11929 21 6.5C21 7.88071 19.8807 9 18.5 9C17.1193 9 16 7.88071 16 6.5C16 5.11929 17.1193 4 18.5 4ZM5.5 4C6.88071 4 8 5.11929 8 6.5C8 7.88071 6.88071 9 5.5 9C4.11929 9 3 7.88071 3 6.5C3 5.11929 4.11929 4 5.5 4Z" fill="#212121"/>
</svg>

<svg viewBox="0 0 24 24" fill="none" xmlns="http://www.w3.org/2000/svg" height="1em" width="1em">
  <path d="M14.754 10c.966 0 1.75.784 1.75 1.75v4.749a4.501 4.501 0 0 1-9.002 0V11.75c0-.966.783-1.75 1.75-1.75h5.502Zm-7.623 0a2.72 2.72 0 0 0-.62 1.53l-.01.22v4.749c0 .847.192 1.649.534 2.365A4.001 4.001 0 0 1 2 14.999V11.75a1.75 1.75 0 0 1 1.606-1.744L3.75 10h3.381Zm9.744 0h3.375c.966 0 1.75.784 1.75 1.75V15a4 4 0 0 1-5.03 3.866c.3-.628.484-1.32.525-2.052l.009-.315V11.75c0-.665-.236-1.275-.63-1.75ZM12 3a3 3 0 1 1 0 6 3 3 0 0 1 0-6Zm6.5 1a2.5 2.5 0 1 1 0 5 2.5 2.5 0 0 1 0-5Zm-13 0a2.5 2.5 0 1 1 0 5 2.5 2.5 0 0 1 0-5Z" fill="#212121"/>
</svg>
